X: 3291
M: 6/8
L: 1/8
K: G
|:\
d2c ABc | d2B G2B | dcB ABc | d2B g2d |\
e2c g2e | d2B g2d | ded dcB | B3  A3 |]


